X: 21346
T: Kerreg Beg An Treiz
R: jig
M: 6/8
K: Edorian
EBA F2D|E ~E2 FGA|B2d cd/c/A|B2A F2D|
EBA F2D|EEE FGA|Bcd cd/c/A|B3 BAF|
EBA F2D|E~E2 FGA|B2d cd/c/A|B2A F2D|
EBA F2D|EEE FGA|Bcd cd/c/A|B4 ze|
edB A2B|d2c B2e|d2B Bc/B/A|~B3Bcd|
A2F ~A3|B/c/dc A2E|FBA F2D|E4 ze|
edB A2B|d2c B2e|d2B BA/^G/A|~B3Bcd|
A2F ~A3|B/c/dc A2E|FBA F2D|(E3E2) z|
F2A ~B3|e2d B2c|~d3d c/B/A|~B3 A2B|
d2c B2A|FED E2F|A2cBc/B/A|F3 F2C|
F2A ~B3|e2d B2c|~d3d c/B/A|~B3A2B|
d2c B2A|FED E2F|A2cBc/B/A|F3 F2z|
B2A ~B3|cBA ~F3|B2c~d3|e2d c2d|
B2A ~B3|cBA ~F2D|E2FABA|F3 F2 z|
B2A ~B3|cBA ~F3|B2c~d3|e2d B2c|
AB/A/F~ A3|B/c/d c A2E|FBA F2D|(E3E2)z|

